!! 00000] TT[WS
!!!OTL: Jiemei lia
!!!ARE: Asia, China, Shanxi Taiyuan
!! Ethnic Group: Han
!! WI, 240
!!!SCT: J0286
!!!YEM: Copyright 1995, estate of Helmut Schaffrath.
**kern
*ICvox
*Ivox
!! Mixed meters:  2/4; 3/4
*M3/4
*k[b-e-]
*B-:
{8ddd
16ddd
16ddd
8ddd
8gg
=1
8.ddd
16fff
4ddd
=2
8ddd
16ddd
16fff
16ggg
16fff
16ddd
16ccc
=3
8.ddd
16ccc
16ddd
16ccc
8bb-
8bb-
8r}
=4
*M2/4
{8ddd
16ddd
16fff
8ddd
8gg
=5
8.gg
16ddd
8ddd
8gg
=6
8.gg
16ddd
8ddd
8gg
=7
16ff
16gg
4.dd}
=8
{8ddd
16ddd
16ccc
8ddd
8aa
=9
16gg
16aa
16gg
16ff
4dd
=10
8ddd
16ddd
16fff
8aa
8aa
=11
16gg
16aa
16gg
16ff
4dd}
=12
{8ddd
8ddd
8aa
8aa
=13
8.gg
16aa
4dd
=14
8.bb-
16ccc
8ddd
8ddd}
=15
{8.bb-
16ccc
8ddd
8fff
=16
8ddd
8ccc
8bb-
8gg
=17
8ddd
16ddd
16ccc
8.aa
16ccc
=18
8aa
8gg
4ff}
==
!!!AGN: Xiaodiao. Qingge, Sichun
!!!ONB: ESAC (Essen Associative Code) Database: CHINA
!!!AMT: irregular
!!!AIN: vox
!!!EED: Helmut Schaffrath
!!!EEV: 1.0
*-
